X:1
T:Keep Step with the Master
T:Keep Step with the Master
T:William Augustine Ogden
T:Frances Jane (Fanny) Crosby, 1894
T:Public Domain Courtesy of the Cyber Hymnal™
T:Public Domain Courtesy of the Cyber Hymnal™
C:William Augustine Ogden
Z:Public Domain
Z:Courtesy of the Cyber Hymnal™
%%score ( 1 2 ) ( 3 4 )
L:1/8
Q:1/4=98
M:4/4
K:Db
V:1 treble 
V:2 treble 
V:3 bass 
V:4 bass 
V:1
 A2 | [Fd]2 F>G A F2 D | [CE]2 [CF]>[CE] D3 D | [DG]2 [GB]>[GB] [FA] [Fd]2 [Fd] | %4
w: 1.~Keep|step with the Mas- ter, what-|ev- er be- tide; Tho’|dark be the path- way, keep|
w: 2.~Keep|step with the Mas- ter, wher-|ev- er you go; Thro’|dark- ness and sha- dow, the|
w: 3.~Keep|step with the Mas- ter, nor|halt by the way; What-|e’er He com- mands you, oh,|
 [Ec]2 [DB]>[DB] [CA]3 A | [Fd]2 [Fd]>[Ac] [GB] [GB]2 [GB] | [=Ge]2 [Ge]>[Bd] [Ac]3 [_Gc] | %7
w: close to your guide; While|foes are al- lur- ing, and|dan- ger is near, When|
w: way He will show; The|light of His pre- sence your|path will il- lume, And|
w: haste to o- bey! A-|rise at His bid- ding, press|on in His might; While|
 [Fd]2 [FA]>[FA] [GB] [Gd]2 [Ge] | [Fd]2 [Ec]>[Ec] !fermata![Fd]2 ||"^Refrain" A>A | %10
w: walk- ing with Je- sus, you’ve|no- thing to fear.||
w: make all the de- sert a|gar- den of bloom.|Keep- ing|
w: walk- ing with Je- sus, you’re|sure to be right.||
 (z2 [Fd]>)[Fc] [FB]>[FA] x2 | [Gc]2 [Gc]4 A>A | (z2 [Gc]>)[GB] [FA]>[EG] x2 | [DF]6 A>A | %14
w: ||||
w: * step, go brave-|* ly for- ward,|* And thy cour-|* age still|
w: ||||
 (z2 [Fd]>)[Fd] [Gc]>[Ad] x2 | [Ge]2 [GB]4 [Ac]>[GB] | [FA]>[Fd] [Ec]>[Fd] [Af]2 [Ge]2 | [Fd]6 |] %18
w: ||||
w: * re- new; Dai-|* ly walk with|Christ your Sav- ior, He will|lead|
w: ||||
V:2
 A2 | x2 F>G A F2 D | x4 D3 D | x8 | x7 A | x8 | x8 | x8 | x6 || x2 | d4- F3/2 F/ x2 | x8 | %12
 c6- G3/2 G/ | x8 | d4- F3/2 F/ x2 | x8 | x8 | x6 |] %18
V:3
 A,2 | [D,A,]2 F,>G, A, F,2 [D,F,] | [A,,G,]2 [A,,A,]>[A,,G,] [D,F,]3 [F,A,] | %3
 [G,B,]2 [G,D]>[G,D] [D,D] [D,A,]2 [D,A,] | [E,A,]2 [E,=G,]>[E,G,] [A,,A,]3 A, | %5
 [D,A,]2 [D,A,]>[F,D] [G,D] [G,D]2 [G,B,] | [E,B,]2 [E,B,]>[=G,E] [A,E]3 A, | %7
 [D,A,]2 [D,D]>[D,D] [G,D] [G,B,]2 [G,B,] | A,2 [A,,A,]>[A,,A,] !fermata![D,A,]2 || z2 | %10
 z2 [D,A,]>[D,A,] [D,A,]>[D,A,] [D,A,]>[D,A,] | [E,A,]2 [E,A,]4 z2 | %12
 z2 [A,,A,]>[A,,A,] [A,,A,]>[A,,A,] [A,,A,]>[A,,A,] | [D,A,]2 [D,A,]>[D,A,] [D,A,]2 z2 | %14
 z2 [D,A,]>[D,A,] [D,A,]>[D,A,] [E,A,]>[F,D] | [G,B,]2 [G,D]4 [G,D]>[G,D] | %16
 [A,D]>A, A,>A, [A,,A,]2 [A,,A,]2 | [D,A,]6 |] %18
V:4
 A,2 | x2 F,>G, A, F,2 x | x8 | x8 | x7 A, | x8 | x7 A, | x8 | A,2 x4 || x2 | x8 | x8 | x8 | x8 | %14
 x8 | x8 | x3/2 A,/ A,>A, x4 | x6 |] %18

